static/img/hive.svg

<svg xmlns="http://www.w3.org/2000/svg" width="40" height="40" fill="none" viewBox="0 0 40 40"><rect width="40" height="40" fill="#f2f4f7" rx="8"/><path fill="#fdee21" stroke="#d58001" d="M18.5 10 12 13.5v7l6.5 3.5 6.5-3.5v-7z"/><path fill="#fdee21" stroke="#d58001" d="m21.5 16 6.5 3.5v7L21.5 30 15 26.5v-7z"/><path stroke="#d58001" d="M18.5 10v7m0 7v-7m0 0L12 20.5m6.5-3.5 6.5 3.5M21.5 16v7m0 7v-7m0 0L15 26.5m6.5-3.5 6.5 3.5"/></svg>

<svg width="40" height="40" viewBox="0 0 40 40" fill="none" xmlns="http://www.w3.org/2000/svg">
    <rect width="40" height="40" rx="8" fill="#F2F4F7" />
    <path d="M18.5 10L12 13.5V20.5L18.5 24L25 20.5V13.5L18.5 10Z" fill="#FDEE21" stroke="#D58001" strokeWidth="1.5" />
    <path d="M21.5 16L28 19.5V26.5L21.5 30L15 26.5V19.5L21.5 16Z" fill="#FDEE21" stroke="#D58001" strokeWidth="1.5" />
    <path d="M18.5 10V17M18.5 24V17M18.5 17L12 20.5M18.5 17L25 20.5" stroke="#D58001" strokeWidth="1.5" />
    <path d="M21.5 16V23M21.5 30V23M21.5 23L15 26.5M21.5 23L28 26.5" stroke="#D58001" strokeWidth="1.5" />
</svg>
